assets/images/svg/mail.svg

<svg width="14" height="10" viewBox="0 0 14 10" fill="none" xmlns="http://www.w3.org/2000/svg">
<path d="M13.5 9.75H0V1.24219L4.60547 4.75781L2.21484 7.46484L2.28516 7.53516L5.0625 5.07422L6.75 6.375L8.4375 5.07422L11.2148 7.53516L11.2852 7.46484L8.89453 4.75781L13.5 1.24219V9.75ZM13.2188 0.75L6.75 5.67188L0.28125 0.75H13.2188Z" fill="#9EDD05"/>
</svg>

<svg version="1.2" xmlns="http://www.w3.org/2000/svg" viewBox="0 0 14 10" width="14" height="10"><style>.a{fill:#0bce5a}</style><path class="a" d="m13.5 9.8l-13.5-0.1v-8.5l4.6 3.6-2.4 2.7h0.1l2.8-2.4 1.7 1.3 1.6-1.3 2.8 2.4h0.1l-2.4-2.7 4.6-3.6zm-0.3-9l-6.4 5-6.5-5z"/></svg>
